!!!!SEGMENT: pl-kk--kk-i-318_anonim--deus-tuorum-militum.krn
!!!cenid: 17xx:2117
!!!COM: Anonim
!!!COM-rismid: pe30004985
!!!CDT:
!!!CNT:
!!!OTL: Deus tuorum militum
!!!PDT:
!!!AGN: Sacred
!!!SMS-siglum: PL-Kk
!!!SMS-shelfmark: Kk.I.318
!!!SMS-shelfwork: W
!!!SMS-variant:
!!!SMS-altvar:
!!!NIFC-rismid: 1001146201
!!!URL-scan: http://repozytorium.nifc.pl/skany/pl-kk-nut--i-318
!!!ONB-nifc:
**kern	**text	**text	**text	**text	**text	**kern	**text	**text	**text	**text	**text	**kern	**text	**text	**text	**text	**text	**kern	**text	**text	**text	**text	**text
*part4	*part4	*part4	*part4	*part4	*part4	*part3	*part3	*part3	*part3	*part3	*part3	*part2	*part2	*part2	*part2	*part2	*part2	*part1	*part1	*part1	*part1	*part1	*part1
*staff4	*staff4	*staff4	*staff4	*staff4	*staff4	*staff3	*staff3	*staff3	*staff3	*staff3	*staff3	*staff2	*staff2	*staff2	*staff2	*staff2	*staff2	*staff1	*staff1	*staff1	*staff1	*staff1	*staff1
*group1	*	*	*	*	*	*group1	*	*	*	*	*	*group1	*	*	*	*	*	*group1	*	*	*	*	*
*	*verse1	*verse2	*verse3	*verse4	*verse5	*	*verse1	*verse2	*verse3	*verse4	*verse5	*	*verse1	*verse2	*verse3	*verse4	*verse5	*	*verse1	*verse2	*verse3	*verse4	*verse5
*Iempty	*	*	*	*	*	*Itenor	*	*	*	*	*	*Ialto	*	*	*	*	*	*Ivox	*	*	*	*	*
*I"Baſso	*	*	*	*	*	*I"Tenore.	*	*	*	*	*	*I"Alto.	*	*	*	*	*	*I"Canto	*	*	*	*	*
*I'B	*	*	*	*	*	*I'T	*	*	*	*	*	*I'A	*	*	*	*	*	*I'S	*	*	*	*	*
*clefF4	*	*	*	*	*	*clefC4	*	*	*	*	*	*clefC3	*	*	*	*	*	*clefC1	*	*	*	*	*
*k[b-]	*	*	*	*	*	*k[b-]	*	*	*	*	*	*k[b-]	*	*	*	*	*	*k[b-]	*	*	*	*	*
*F:	*	*	*	*	*	*F:	*	*	*	*	*	*F:	*	*	*	*	*	*F:	*	*	*	*	*
*M3/2	*	*	*	*	*	*M3/2	*	*	*	*	*	*M3/2	*	*	*	*	*	*M3/2	*	*	*	*	*
=1	=1	=1	=1	=1	=1	=1	=1	=1	=1	=1	=1	=1	=1	=1	=1	=1	=1	=1	=1	=1	=1	=1	=1
*2\right	*	*	*	*	*	*2\right	*	*	*	*	*	*2\right	*	*	*	*	*	*2\right	*	*	*	*	*
2F\	De-	Hic	Poe-	Ob	Laus	2A\	De-	Hic	Poe-	Ob	lauſ	2a\	De-	Hic	Poe-	Ob	lauſ	2cc\	De-	Hic	Poe-	Ob	Laus
2F\	-us	nem-	-nas	hoc	et	2c\	-us	nem-	-naſ	hoc	et	2a\	-us	nem-	-naſ	hoc	et	2ff\	-us	nem-	-nas	hoc	et
2C/	tu-	-pe	cu-	pre-	pe-	2c\	tu-	-pe	cu-	pre-	pe-	2g\	tu-	-pe	cu-	pre-	pe-	2ee\	tu-	-pe	cu-	pre-	pe-
=2	=2	=2	=2	=2	=2	=2	=2	=2	=2	=2	=2	=2	=2	=2	=2	=2	=2	=2	=2	=2	=2	=2	=2
(2F\	-o-	mun-	-cur-	-ca-	-ren-	1.c	-o-	mun-	-cur-	-ca-	-renn-	2a\	-o-	mun-	-cur-	-ca-	-ren-	2ff\	-o-	mun-	-cur-	-ca-	-ren-
2G\)	.	.	.	.	.	.	.	.	.	.	.	2g\	.	.	.	.	.	4ee\	.	.	.	.	.
.	.	.	.	.	.	.	.	.	.	.	.	.	.	.	.	.	.	4dd\	.	.	.	.	.
2A\	-rum	-di	-rit	tu	-nis	.	.	.	.	.	.	2f\	-rum	-di	-rit	tu	-nis	2cc\	rum	-di	-rit	-tu	-nis
=3	=3	=3	=3	=3	=3	=3	=3	=3	=3	=3	=3	=3	=3	=3	=3	=3	=3	=3	=3	=3	=3	=3	=3
!	!	!	!	!	!	!	!	!	!	!	!	!	!	!	!	!	!	!LO:SIC:v:l:s=sup-:verse4	!	!	!	!	!
2B-\	mi-	gau-	for-	sup-	glo-	2f\	-rum	-di	-rit	-tu	-is	2a\	mi-	gau-	for-	Sup-	glo-	4dd\	mi-	gau-	for-	su-	glo-
.	.	.	.	.	.	.	.	.	.	.	.	.	.	.	.	.	.	4cc\	.	.	.	.	.
!	!	!	!	!	!	!LO:SIC:v:l:s=Sup-:verse4	!	!	!	!	!	!	!	!	!	!	!	!	!	!	!	!	!
2c\	.	.	.	.	.	2.f\	mi-	gau-	for-	Su-	glo-	2g\	.	.	.	.	.	2.b-\	.	.	.	.	.
2C/	-li-	-di-	-ti-	-pli-	-ri-	.	.	.	.	.	.	2g\	-li-	-di-	-ti-	-pli-	-ri-	.	.	.	.	.	.
.	.	.	.	.	.	4e\	-li-	-di-	-ti-	-pli-	-ri-	.	.	.	.	.	.	4b-\	-li-	-di-	-ti-	-pli-	-ri-
=4	=4	=4	=4	=4	=4	=4	=4	=4	=4	=4	=4	=4	=4	=4	=4	=4	=4	=4	=4	=4	=4	=4	=4
1.F	-tum	-a,	-ter	-ci	-a	1f	-tum	-a	-ter	-ci	-a	1a	-tum	-a	-ter	-ci	-a	1a	-tum	-a	-ter	-ci	-a
.	.	.	.	.	.	2rc	.	.	.	.	.	2re	.	.	.	.	.	2r	.	.	.	.	.
=5	=5	=5	=5	=5	=5	=5	=5	=5	=5	=5	=5	=5	=5	=5	=5	=5	=5	=5	=5	=5	=5	=5	=5
2F\	sors	et	et	Te	Pa-	2c\	Sorſ	et	et	Te	Pa-	2a\	Sorſ	et	et	Te	Pa-	2a\	sors	et	et	Te	Pa-
2D/	et	blan-	sus-	poſ-	-tri	2d\	et	blan-	Suſ-	poſ-	-tri	2f\	et	blan-	Suſ-	poſ-	-tri	2bn\	et	blan-	sus-	pos-	-tri
2D/	co-	-da	-tu-	-ci-	sit	2d\	Co-	-da	-tu-	-ci-	Sit	2f\	Co-	-da	-tu-	-ci-	sit	2b\	co-	-da	-tu-	-ci-	sit
=6	=6	=6	=6	=6	=6	=6	=6	=6	=6	=6	=6	=6	=6	=6	=6	=6	=6	=6	=6	=6	=6	=6	=6
1C	-ro-	frau-	-lit	-mus	at-	2.e\	-ro-	frau-	-lit	-mus	at-	2.e\	-ro-	frau-	-lit	-mus	at-	(2.cc\	-ro-	frau-	-lit	-mus	at-
.	.	.	.	.	.	4d\	.	.	.	.	.	4f\	.	.	.	.	.	4dd\	.	.	.	.	.
2C/	-na	.	.	.	.	2c\	-na	-dum	.	.	.	2g\	.	.	.	.	.	2ee\)	-na	.	.	.	.
=7	=7	=7	=7	=7	=7	=7	=7	=7	=7	=7	=7	=7	=7	=7	=7	=7	=7	=7	=7	=7	=7	=7	=7
2F\	prae-	-dum	vi-	pi-	-q(ue)	2c\	prae-	pa-	vi-	pi-	-que	2a\	-na	-dum	vi-	pi-	-que	4ff\	prae-	-dum	vi-	pi-	-que
.	.	.	.	.	.	.	.	.	.	.	.	.	.	.	.	.	.	4ee\	.	.	.	.	.
2G\	.	pa-	-ri-	-jſ-	Fi-	2.c\	.	.	-ri-	-jſ-	fi-	2.g\	prae-	pa-	-ri-	-jſ-	fi-	2.dd\	.	pa-	-ri-	-iſ-	Fi-
2GG/	-mi-	-bu-	-li-	-si-	-li-	.	.	.	.	.	.	.	.	.	.	.	.	.	.	.	.	.	.
.	.	.	.	.	.	4B-\	-mi-	-bu-	-li-	-si-	-li-	4g\	-mi-	-bu-	-li-	-si-	-li-	4dd\	-mi-	-bu-	-li-	-si-	-li-
=8	=8	=8	=8	=8	=8	=8	=8	=8	=8	=8	=8	=8	=8	=8	=8	=8	=8	=8	=8	=8	=8	=8	=8
1.C	-um	-la	-ter.	-me	-o	1c	-um	-la	-ter	-me	-o	1g	-um	-la	-ter	-me	-o	1cc	-um,	-la,	-ter,	-me,	-o
!	!	!	!	!	!	!LO:SIC:v:t=custos e	!	!	!	!	!	!	!	!	!	!	!	!	!	!	!	!	!
.	.	.	.	.	.	2r	.	.	.	.	.	2re	.	.	.	.	.	2r	.	.	.	.	.
!	!	!	!	!	!	!LO:LB:g=original	!	!	!	!	!	!LO:LB:g=original	!	!	!	!	!	!LO:LB:g=original	!	!	!	!	!
=9	=9	=9	=9	=9	=9	=9	=9	=9	=9	=9	=9	=9	=9	=9	=9	=9	=9	=9	=9	=9	=9	=9	=9
2A\	lau-	im-	fun-	in	San-	2e\	Lau-	in-	fun-	In	San-	2a\	lau-	im-	fun-	In	San-	2cc#X\	lau-	im-	fun-	in	San-
2A\	-des	-bu-	-dens-	hoc	-cto	2e\	-deſ	-bu-	-denſ-	hoc	-cto	2a\	-deſ	-bu-	-dens-	hoc	-cto	2cc#\	-des	-bu-	-dens-	hoc	-cto
2G\	ca-	-ta	-q(ue)	tri-	Si-	2e\	ca-	-la	-que	try-	Si-	2a\	ca-	-ta	-que	try-	Si-	2cc#\	ca-	-ta	-q(ue)	tri-	si-
!LO:LB:g=original	!	!	!	!	!	!	!	!	!	!	!	!	!	!	!	!	!	!	!	!	!	!	!
=10	=10	=10	=10	=10	=10	=10	=10	=10	=10	=10	=10	=10	=10	=10	=10	=10	=10	=10	=10	=10	=10	=10	=10
1F	-nen-	fel-	pro	-um-	-mul	1d	-nen-	fel-	pro-	-um-	-mul	1a	-nen-	fel-	pro	-um-	-mul	1dd	-nen-	fel-	pro	-um-	-mul
2E\	-tes	-le	te	-pho	Pa-	2c#X\	-teſ	-le	-te	-pho	Pa-	2g\	-tes	-le	te	-pho	Pa-	2ee\	-tes	-le	Te	-pho	Pa-
=11	=11	=11	=11	=11	=11	=11	=11	=11	=11	=11	=11	=11	=11	=11	=11	=11	=11	=11	=11	=11	=11	=11	=11
2.D\	Mar-	de-	san-	mar-	-ra-	1d	Mar-	de-	San-	Mar-	-ra-	2.f\	Mar-	de-	Sang-	Mar-	-ra-	1ff	Mar-	de-	san-	Mar-	-ra-
4E\	.	.	.	.	.	.	.	.	.	.	.	4g\	.	.	.	.	.	.	.	.	.	.	.
4F\	.	.	.	.	.	2d\	-ty-	-pu-	-gvi-	-ty-	-cli-	4a\	.	.	.	.	.	2ff\	-ty-	-pu-	-gui-	-ty-	-cli-
4G\	-ty-	-pu-	-gui-	-ty-	-cli-	.	.	.	.	.	.	4f\	-ty-	-pu-	-vi-	-ty-	-cli-	.	.	.	.	.	.
=12	=12	=12	=12	=12	=12	=12	=12	=12	=12	=12	=12	=12	=12	=12	=12	=12	=12	=12	=12	=12	=12	=12	=12
1.A	-ris	-tanſ	-nem	-ris	-to	1.c#X	-riſ	-tanſ	-nem	-ris	-to	1.e	-ris	-tanſ	-nem	-ris	-to	1.ee	-ris	-tans	-ne(m)	-ris	-to
=13	=13	=13	=13	=13	=13	=13	=13	=13	=13	=13	=13	=13	=13	=13	=13	=13	=13	=13	=13	=13	=13	=13	=13
2A\	ab-	per-	ae-	di-	in	2e\	ab-	per-	ae-	di-	In	2e\	ab-	per-	ae-	di-	In	2a\	ab-	per-	ae-	di-	in
2G\	-sol-	-ve-	-ter-	-mit-	sem-	2e\	-ſol-	-ve-	-ter-	-mit-	Sem-	2g\	-ſol-	-ve-	-ter-	-mit-	Sem-	2bn\	-sol-	-ve-	-ter-	-mit-	sem-
2G\	-ve	-nit	-na	-te	-pi-	2e\	-ve	-nit	-na	-te	-pi-	2a\	-ve	-nit	-na	-te	-pi-	2cc#X\	-ve	-nit	-na	-te	-pi-
=14	=14	=14	=14	=14	=14	=14	=14	=14	=14	=14	=14	=14	=14	=14	=14	=14	=14	=14	=14	=14	=14	=14	=14
2.F\	ne-	ad	do-	no-	-ter-	2.f\	ne-	ad	do-	no-	-ter-	2.f\	ne-	ad	do-	no-	-ter-	2.dd\	ne-	ad	do-	no-	-ter-
4E\	.	.	.	.	.	4f\	.	.	.	.	.	4g\	.	.	.	.	.	4ee\	.	.	.	.	.
2D\	-xu	.	-na	-xam	-na	2f\	-xu	.	-na	-xam	-na	2a\	-xu	.	-na	-xam	-na	2ff\	-xu	.	-na	-xam	-na
=15	=15	=15	=15	=15	=15	=15	=15	=15	=15	=15	=15	=15	=15	=15	=15	=15	=15	=15	=15	=15	=15	=15	=15
2G\	cri-	coe-	poſ-	ser-	sae-	2d\	cri-	coe-	poſ-	Ser-	Sae-	4g\	cri-	coe-	poſ-	Ser-	Sae-	4ee\	cri-	coe-	poſ-	ser-	sae-
.	.	.	.	.	.	.	.	.	.	.	.	4f\	.	.	.	.	.	4dd\	.	.	.	.	.
2A\	.	-les-	.	.	.	2.e\	.	-leſ-	.	.	.	2.a\	.	-les-	.	.	.	2.cc#X\	.	-le-	.	.	.
2AA/	-mi-	-ti-	-si-	-vu-	-cu-	.	.	.	.	.	.	.	.	.	.	.	.	.	.	.	.	.	.
.	.	.	.	.	.	4e\	-mi-	-ti-	-si-	-vu-	-cu-	4a\	-mi-	-ti-	-si-	-vu-	-cu-	4cc#\	-mi-	-sti-	-si-	-vu-	-cu-
=16	=16	=16	=16	=16	=16	=16	=16	=16	=16	=16	=16	=16	=16	=16	=16	=16	=16	=16	=16	=16	=16	=16	=16
1.D	-nis	-a	-det	-lis	-la	1f	-nis	-a	-det	-lis	-la	1a	-nis	-a	-det	-li	-la	2dd\	-nis.	-a.	-det.	-lis.	-la.
.	.	.	.	.	.	.	.	.	.	.	.	.	.	.	.	.	.	2r	.	.	.	.	.
!	!	!	!	!	!	!	!	!	!	!	!	!LO:TX:b:t=Verte	!	!	!	!	!	!	!	!	!	!	!
!	!	!	!	!	!	!	!	!	!	!	!	!LO:SIC:v:t=custos a	!	!	!	!	!	!LO:TX:b:t=Verte	!	!	!	!	!
.	.	.	.	.	.	2rc	.	.	.	.	.	2re	.	.	.	.	.	2r	.	.	.	.	.
!	!	!	!	!	!	!	!	!	!	!	!	!LO:PB:g=original	!	!	!	!	!	!LO:PB:g=original	!	!	!	!	!
=17	=17	=17	=17	=17	=17	=17	=17	=17	=17	=17	=17	=17	=17	=17	=17	=17	=17	=17	=17	=17	=17	=17	=17
2F\	lau-	im-	fun-	in	San-	2f\	lau-	in-	fun-	In	San-	2a\	lau-	Im-	fun-	In	San-	2cc\	lau-	im-	fun-	In	San-
2F\	-des	-bu-	-dens-	hoc	-cto	2f\	-deſ	-bu-	-denſ-	hoc	-cto	2a\	-deſ	-bu-	-denſ-	hoc	-cto	2cc\	-deſ	-bu-	-denſ-	hoc	-cto
2F\	ca-	-ta	-que	try-	si-	2f\	ca-	-ta	-que	try-	Si-	2a\	ca-	-ta	-que	try-	Si-	2ff\	ca-	-ta	-que	try-	Si-
!	!	!	!	!	!	!LO:PB:g=original	!	!	!	!	!	!	!	!	!	!	!	!	!	!	!	!	!
=18	=18	=18	=18	=18	=18	=18	=18	=18	=18	=18	=18	=18	=18	=18	=18	=18	=18	=18	=18	=18	=18	=18	=18
1B-	-nen-	fel-	pro	-um-	-mul	1f	-nen-	fel-	pro-	-um-	-mul	1b-	-nen-	fel-	pro	-um-	-mul	1dd	-nen-	fel-	pro	-um-	-mul
!LO:SIC:v:t=custos G	!	!	!	!	!	!	!	!	!	!	!	!	!	!	!	!	!	!	!	!	!	!	!
2F\	-tes	-le	te	-pho	Pa-	2f\	-tes	-le	-te	-pho	Pa-	2a\	-tes	-le	te	-pho	Pa-	2cc\	-teſ	-le	te	-pho	Pa-
!LO:PB:g=original	!	!	!	!	!	!	!	!	!	!	!	!	!	!	!	!	!	!	!	!	!	!	!
=19	=19	=19	=19	=19	=19	=19	=19	=19	=19	=19	=19	=19	=19	=19	=19	=19	=19	=19	=19	=19	=19	=19	=19
2G\	Mar-	de-	San-	Mar-	-ra-	1f	Mar-	de-	San-	Mar-	-ra-	4g\	Mar-	de-	San-	Mar-	-ra-	4b-\	Mar-	de-	San-	Mar-	-ra-
.	.	.	.	.	.	.	.	.	.	.	.	4f\	.	.	.	.	.	4a\	.	.	.	.	.
2A\	.	.	.	.	.	.	.	.	.	.	.	2f\	.	.	.	.	.	2.a\	.	.	.	.	.
2B-\	-ty-	-pu-	-gui-	-ty-	-cli-	2d\	-ty-	-pu-	-gvi-	-ty-	-cly-	2f\	-ty-	-pu-	-gvi-	-ty-	-cli-	.	.	.	.	.	.
.	.	.	.	.	.	.	.	.	.	.	.	.	.	.	.	.	.	4g\	-ty-	-pu-	-gui-	-ty-	-cli-
=20	=20	=20	=20	=20	=20	=20	=20	=20	=20	=20	=20	=20	=20	=20	=20	=20	=20	=20	=20	=20	=20	=20	=20
1.c	-ris	-tans	-nem	-ris	-to	1.e	-riſ	-tanſ	-nem	-riſ	-to	1e	-riſ	-tanſ	-nem	-riſ	-to	1g	-riſ	-tans	-nem	-ris	-to
.	.	.	.	.	.	.	.	.	.	.	.	2r	.	.	.	.	.	2r	.	.	.	.	.
=21	=21	=21	=21	=21	=21	=21	=21	=21	=21	=21	=21	=21	=21	=21	=21	=21	=21	=21	=21	=21	=21	=21	=21
2F\	ab-	per-	ae-	di-	in	2A\	ab-	per-	ae-	di-	In	2f\	ab-	per-	ae-	di-	In	2cc\	ab-	per-	ae-	di-	In
2A\	-sol-	.	-ter-	-mit-	sem-	2A\	-ſol-	.	-ter-	-mit-	Sem-	2f\	-ſol-	.	-ter-	-mit-	Sem-	2cc\	-ſol-	-[[ve-	-ter-	-mit-	Sem-
2F\	-ve	.	-na	-te	-pi-	2A\	-ve	.	-na	-te	-pi-	2f\	-ve	.	-na	-te	-pi-	2cc\	-ve	-nit]]	-na	-te	-pi-
=22	=22	=22	=22	=22	=22	=22	=22	=22	=22	=22	=22	=22	=22	=22	=22	=22	=22	=22	=22	=22	=22	=22	=22
!	!	!	!	!	!	!	!	!	!	!	!	!	!	!	!	!	!	!LO:TX:a:t=d	!	!	!	!	!
2BB-/	ne-	-ve-	do-	no-	-ter-	1B-X	ne-	-ve-	do-	no-	-ter-	1f	ne-	-ve-	do-	no-	-ter-	1dd	ne-	-ve-	do-	no-	-ter-
2D/	.	.	.	.	.	.	.	.	.	.	.	.	.	.	.	.	.	.	.	.	.	.	.
!	!	!	!	!	!	!	!	!	!	!	!	!	!	!	!	!	!	!LO:TX:a:t=d	!	!	!	!	!
2BB-/	-xu	-nit	-na	-xam	-na	2B-\	-xu	-nit	-na	-xam	-na	2f\	-xu	-nit	-na	-xam	-na	2dd\	-xu	-nit	-na	-xam	-na
=23	=23	=23	=23	=23	=23	=23	=23	=23	=23	=23	=23	=23	=23	=23	=23	=23	=23	=23	=23	=23	=23	=23	=23
*	*ij	*ij	*ij	*ij	*ij	*	*ij	*	*ij	*ij	*ij	*	*ij	*ij	*ij	*ij	*ij	*	*ij	*	*ij	*ij	*ij
2GG/	ab-	per-	ae-	di-	in	2Bn\	ab-	per-	ae-	di-	In	2g\	ab-	per-	ae-	di-	In	2dd\	ab-	per-	ae-	di-	In
2BB-/	-sol-	.	-ter-	-mit-	sem-	2B\	-sol-	.	-ter-	-mit-	Sem-	2g\	-ſol-	.	-ter-	-mit-	Sem-	2dd\	-sol-	.	-ter-	-mit-	Sem-
2GG/	-ve	-ve-	-na	-te	-pi-	2B\	-ve	-ve-	-na	-te	-pi-	2g\	-ve	-ve-	-na	-te	-pi-	2dd\	-ve	-ve-	-na	-te	-pi-
=24	=24	=24	=24	=24	=24	=24	=24	=24	=24	=24	=24	=24	=24	=24	=24	=24	=24	=24	=24	=24	=24	=24	=24
2C/	ne-	-nit	do-	no-	-ter-	1c	ne-	-nit	do-	no-	-ter-	[2g\	ne-	-nit	do-	no-	-ter-	1ee	ne-	-nit	do-	no-	-ter-
*	*	*Xij	*	*	*	*	*	*	*	*	*	*	*	*Xij	*	*	*	*	*	*	*	*	*
2BB-/	.	.	.	.	.	.	.	.	.	.	.	2g\]	.	.	.	.	.	.	.	.	.	.	.
2AA/	-xu	ad	-na	-xam	-na	2c\	-xu	ad	-na	-xam	-na	2a\	-xu	ad	-na	-xam	-na	2ff\	-xu	ad	-na	-xam	-na
*	*Xij	*	*Xij	*Xij	*Xij	*	*Xij	*	*Xij	*Xij	*Xij	*	*Xij	*	*Xij	*Xij	*Xij	*	*Xij	*	*Xij	*Xij	*Xij
!	!	!	!	!	!	!	!	!	!	!	!	!LO:LB:g=original	!	!	!	!	!	!LO:LB:g=original	!	!	!	!	!
=25	=25	=25	=25	=25	=25	=25	=25	=25	=25	=25	=25	=25	=25	=25	=25	=25	=25	=25	=25	=25	=25	=25	=25
2BB-/	cri-	coe-	poſ-	ser-	sae-	2d\	cri-	coe-	poſ-	Ser-	Sae-	1g	Cri-	coeleſ-	poſ-	Ser-	Sae-	4ff\	cri-	coe-	poſ-	Ser-	Sae-
.	.	.	.	.	.	.	.	.	.	.	.	.	.	.	.	.	.	4dd\	.	.	.	.	.
2C/	.	-les-	.	.	.	2.c\	.	-le-	.	.	.	.	.	.	.	.	.	2.ee\	.	-leſ-	-si-	.	.
2C/	-mi-	-ti-	-si-	-vu-	-cu-	.	.	.	.	.	.	2g\	-mi-	-ti-	-si-	-vu-	-cu-	.	.	.	.	.	.
.	.	.	.	.	.	4c\	-mi-	-ſti-	-si-	-vu-	-cu-	.	.	.	.	.	.	4ee\	-mi-	-ti-	.	-vu-	-cu-
=26	=26	=26	=26	=26	=26	=26	=26	=26	=26	=26	=26	=26	=26	=26	=26	=26	=26	=26	=26	=26	=26	=26	=26
1.FF	-niſ	-a	-det	-liſ	-la.	1.c	-niſ	-a.	-det	-lis.	-la.	1.a	-niſ	-a	-det	-liſ	-la.	1.ff	-niſ	-a	-det	-lis	-la.
==	==	==	==	==	==	==	==	==	==	==	==	==	==	==	==	==	==	==	==	==	==	==	==
*-	*-	*-	*-	*-	*-	*-	*-	*-	*-	*-	*-	*-	*-	*-	*-	*-	*-	*-	*-	*-	*-	*-	*-
!!!system-decoration: [g1]
!!!RDF**kern: > = above
!!!RDF**kern: < = below
!!!ENC: Andrzej Kubiczek
!!!END: 2021-04-09
!!!ENC: Berenika Jozajtis
!!!END: 2021-03-15
